packages/katcn/src/icons/svg/call-solid.svg

<svg width="24" height="24" viewBox="0 0 24 24" fill="none" xmlns="http://www.w3.org/2000/svg">
<path d="M22.9813 18.1823C22.8816 17.2789 22.3828 16.5763 21.5849 16.0745L17.994 13.9667C16.8968 13.3645 15.5004 13.5652 14.6027 14.3682L14.2037 14.7697C12.3085 13.5652 10.4134 11.6582 9.21642 9.75119L9.6154 9.34971C10.5131 8.54675 10.7126 7.14158 10.1141 6.03751L8.01947 2.4242C7.62049 1.62124 6.82253 1.11939 5.92482 1.01902C5.12685 0.91865 4.22914 1.21976 3.63067 1.82198L2.43373 3.02642C1.03729 4.43159 0.638307 6.33862 1.33653 8.0449C2.33398 10.3534 4.02965 13.766 7.12176 16.8774C10.2139 19.9889 13.6052 21.7956 15.8994 22.6989C16.4978 22.8996 17.0963 23 17.595 23C18.792 23 19.9889 22.4982 20.8866 21.5948L22.0836 20.3904C22.7818 19.8885 23.081 18.9852 22.9813 18.1823Z" fill="black"/>
<path fill-rule="evenodd" clip-rule="evenodd" d="M16.3647 7.6353C15.8073 7.07789 14.9437 6.87132 14.3162 7.08048C13.7923 7.25513 13.226 6.97197 13.0513 6.44802C12.8767 5.92408 13.1598 5.35776 13.6838 5.18311C15.1042 4.70965 16.7435 5.1857 17.7789 6.22109C18.8143 7.25647 19.2904 8.89583 18.8169 10.3162C18.6422 10.8402 18.0759 11.1233 17.552 10.9487C17.028 10.774 16.7449 10.2077 16.9195 9.68378C17.1287 9.05631 16.9221 8.19271 16.3647 7.6353Z" fill="black"/>
<path fill-rule="evenodd" clip-rule="evenodd" d="M18.9741 5.02589C17.1865 3.23828 14.5882 2.60925 12.26 3.23607C11.7267 3.37965 11.178 3.06373 11.0344 2.53043C10.8908 1.99714 11.2067 1.44842 11.74 1.30484C14.7375 0.497836 18.0793 1.30264 20.3883 3.61167C22.6974 5.92071 23.5022 9.26252 22.6951 12.26C22.5516 12.7933 22.0029 13.1092 21.4696 12.9656C20.9363 12.822 20.6203 12.2733 20.7639 11.74C21.3907 9.41183 20.7617 6.8135 18.9741 5.02589Z" fill="black"/>
</svg>

<svg xmlns="http://www.w3.org/2000/svg" fill="none" viewBox="0 0 24 24"><path fill="#000" d="M22.981 18.182c-.1-.903-.598-1.606-1.396-2.107l-3.591-2.108c-1.097-.603-2.494-.402-3.391.401l-.4.402c-1.894-1.205-3.79-3.112-4.987-5.019l.4-.401c.897-.803 1.097-2.208.498-3.312L8.02 2.424c-.4-.803-1.197-1.304-2.095-1.404-.798-.1-1.696.2-2.294.803L2.434 3.026C1.037 4.432.638 6.34 1.337 8.045c.997 2.308 2.693 5.721 5.785 8.832s6.483 4.919 8.777 5.822c.599.2 1.197.301 1.696.301 1.197 0 2.394-.502 3.292-1.405l1.197-1.205c.698-.502.997-1.405.897-2.208"/><path fill="#000" fill-rule="evenodd" d="M16.365 7.635c-.558-.557-1.421-.764-2.049-.555a1 1 0 0 1-.632-1.897c1.42-.473 3.06.003 4.095 1.038s1.511 2.675 1.038 4.095a1 1 0 0 1-1.898-.632c.21-.628.003-1.491-.554-2.049" clip-rule="evenodd"/><path fill="#000" fill-rule="evenodd" d="M18.974 5.026a6.97 6.97 0 0 0-6.714-1.79 1 1 0 0 1-.52-1.931c2.998-.807 6.34-.002 8.648 2.307 2.31 2.309 3.114 5.65 2.307 8.648a1 1 0 1 1-1.931-.52 6.97 6.97 0 0 0-1.79-6.714" clip-rule="evenodd"/></svg>
